icons/tasklist-24.svg

<svg width="24" height="24" viewBox="0 0 24 24" fill="none" xmlns="http://www.w3.org/2000/svg">
<path d="M17.2803 9.28033C17.5732 8.98744 17.5732 8.51256 17.2803 8.21967C16.9874 7.92678 16.5126 7.92678 16.2197 8.21967L10.25 14.1893L7.78033 11.7197C7.48744 11.4268 7.01256 11.4268 6.71967 11.7197C6.42678 12.0126 6.42678 12.4874 6.71967 12.7803L9.71967 15.7803C10.0126 16.0732 10.4874 16.0732 10.7803 15.7803L17.2803 9.28033Z" fill="#24292E"/>
<path fill-rule="evenodd" clip-rule="evenodd" d="M3.75 2C2.7835 2 2 2.7835 2 3.75V20.25C2 21.2165 2.7835 22 3.75 22H20.25C21.2165 22 22 21.2165 22 20.25V3.75C22 2.7835 21.2165 2 20.25 2H3.75ZM3.5 3.75C3.5 3.61193 3.61193 3.5 3.75 3.5H20.25C20.3881 3.5 20.5 3.61193 20.5 3.75V20.25C20.5 20.3881 20.3881 20.5 20.25 20.5H3.75C3.61193 20.5 3.5 20.3881 3.5 20.25V3.75Z" fill="#24292E"/>
</svg>

<svg xmlns="http://www.w3.org/2000/svg" width="24" height="24" viewBox="0 0 24 24"><path d="M17.28 9.28a.75.75 0 00-1.06-1.06l-5.97 5.97-2.47-2.47a.75.75 0 00-1.06 1.06l3 3a.75.75 0 001.06 0l6.5-6.5z"/><path fill-rule="evenodd" d="M3.75 2A1.75 1.75 0 002 3.75v16.5c0 .966.784 1.75 1.75 1.75h16.5A1.75 1.75 0 0022 20.25V3.75A1.75 1.75 0 0020.25 2H3.75zM3.5 3.75a.25.25 0 01.25-.25h16.5a.25.25 0 01.25.25v16.5a.25.25 0 01-.25.25H3.75a.25.25 0 01-.25-.25V3.75z"/></svg>
